!!!COM: Scriabin, Alexander
!!!OTL@@FR: Étude en do dièse mineur
!!!OTL@@EN: Etude in C# Minor
!!!OPR@@FR: 3 Morceaux
!!!OPR@@EN: 3 Pieces
!!!OPS: 2
!!!ONM: 1
!!!ODT: 1886
!!!AGN: Etude
!!!OMD: Andante.
**kern	**kern	**dynam
*part1	*part1	*part1
*staff2	*staff1	*staff1/2
*Ipiano	*Ipiano	*Ipiano
*clefF4	*clefG2	*
*k[f#c#g#d#]	*k[f#c#g#d#]	*
*kcancel	*kcancel	*
*c#:	*c#:	*
*M3/4	*M3/4	*
*MM92	*MM92	*
=1-	=1-	=1-
*	*^	*
8CC#: 8GG#: 8G#:L	8r	8E 8c#L	p <
8GG# 8G#	4E	8E 8d#	.
8GG# 8G#	.	8c# 8e	.
[>8GG# 8G#	4c#	8c# 8f#	.
8CC# 8GG#]	.	8e 8g#	.
8GG# 8G#J	8ryy	8c# 8e 8cc#J	[
=2	=2	=2	=2
8CC#: 8FF#: 8C#: 8F#:L>	8B 8c# 8f#L	8.bL	>
8C# 8F# 8c#	8B 8f#	.	.
.	.	16aJk	.
8C# 8F# 8c#	8A 8f#	2a	]
8C# 8F# 8c#	8A 8f#	.	.
8C# 8F# 8c#	8A 8f#	.	.
8C# 8F# 8c#J	8A 8f#J	.	.
=3	=3	=3	=3
*^	*	*	*
8C#	8AA 8AL	8ryy	8F# 8c# 8f#L	<
4C#	8GG# 8G#	4c#	8A 8g#	.
.	8FF# 8F#	.	8f# 8a	.
4AA	8EE 8E	4c#	8c# 8b	.
.	8DD# 8D#	.	8f# 8cc#	.
8ryy	8D# 8A 8c#J	8ryy	8f# 8cc# 8ff#J	[
*v	*v	*	*	*
=4	=4	=4	=4
8GG#: 8F#: 8c#:L	8aL	8.e 8.eeL	>
8F# 8c#	8a	.	.
.	.	16d# 16dd#Jk	.
8F# 8c#	8a	2d# 2dd#	]
8F# 8c#	8a	.	.
8F# 8B#	8g#	.	.
8F# 8B#J	8g#J	.	.
!!LO:LB:g=original
=5	=5	=5	=5
*^	*	*	*
2.C#	8c#L	8ryy	8e 8g# 8cc#L	<
.	8BnJ	4g#	8e 8dd#	.
.	8A#	.	8cc# 8ee	.
.	4g#	4cc#	8ff#	.
.	.	.	8ee 8gg#	.
.	8e	8ryy	8cc# 8gg# 8ccc#J	.
=6	=6	=6	=6	=6
2D# 2G#	8eL	8b 8gg#L	8.bbL	.
.	8d#	8g# 8b	.	.
.	.	.	16gg#Jk	.
.	8c##	8g# 8b	4gg#	.
.	8d#	8g# 8b	.	.
4C#	8d#	8e 8g#	4ee	.
.	8G#J	8e 8g#J	.	.
=7	=7	=7	=7	=7
2BB	8A#L	8d# 8g#L	8.dd#L	.
.	8B	8g#	.	.
.	.	.	16bJk	.
.	8e	8g#	4b	.
.	8d#	8g#	.	.
4C#	8B	8e 8f## 8cc#	4dd#	.
.	8A#J	8e 8f## 8cc#J	.	.
=8	=8	=8	=8	=8
4GG#	8D# 8G#L	8B 8d#L	8.bL	.
.	8D# 8G#J	8B 8d#	.	.
.	.	.	16g#Jk	.
2GG#	8C##	8F# 8B#	2g#	p
.	4E	8F# 8B#	.	.
.	.	8F# 8B#	.	.
.	8D#	8F# 8B#J	.	.
=9	=9	=9	=9	=9
4.ryy	8CC# 8C#L	8ryy	8E 8G# 8c#L	.
.	8BBB 8BBJ	4G#	8E 8d#	.
.	8AAA# 8AA#	.	8c# 8e	.
4.ryy	4AA#	4c#	8G# 8f#	.
.	.	.	8e 8g#	<
.	8c#/	8ryy	8cc#J	.
!!LO:LB:g=original
=10	=10	=10	=10	=10
8D#L	8.BL	8c# 8e 8g#L	8.bL	.
8D#J	.	8c# 8e 8g#	.	.
.	16A#Jk	.	16a#Jk	.
*	*^	*	*	*
2A#\	8D#	8A#	8c# 8e 8g#	2a#	.
.	4D#	4e	8c# 8f##	.	.
.	.	.	8c# 8f##	.	.
.	8D#	8d#	8c# 8f##J	.	.
*	*v	*v	*	*	*
=11	=11	=11	=11	=11
4.ryy	8GG# 8G#L	8ryy	8B 8d# 8g#L	.
.	8FF# 8F#J	4d#	8B 8a#	.
.	8EE# 8E#	.	8g# 8b	.
4.ryy	4E#	4g#	8d# 8cc#	.
.	.	.	8b 8dd#	.
.	8g#/	8ryy	8gg#J	.
=12	=12	=12	=12	=12
8A#L	8.f#L	8g# 8b 8dd#L	8.ff#L	.
8A#J	.	8g# 8b 8dd#	.	.
.	16e#Jk	.	16ee#Jk	.
*	*^	*	*	*
2e#	8A#	8e#	8g# 8b 8dd#	2ee#	.
.	4A#	4b	8g# 8cc##	.	.
.	.	.	8g# 8cc##	.	.
.	8A#	8a#	8g# 8cc##J	.	.
*	*v	*v	*	*	*
*	*	*v	*v	*
=13||	=13||	=13||	=13||
*k[b-e-a-d-g-]	*k[b-e-a-d-g-]	*k[b-e-a-d-g-]	*
*	*	*^	*
2.E-	8e-L	8ryy	8g- 8b- 8ee-L	f
.	8d-J	4b-	8g- 8ff	.
.	8c	.	8ee- 8gg-	.
.	4b-	4ee-	8aa-	.
.	.	.	8gg- 8bb-	.
.	8g-	8ryy	8ee- 8bb- 8eee-J	.
=14	=14	=14	=14	=14
2F 2B-	8g-L	8dd- 8bb-L	8.ddd-L	.
.	8f	8b- 8dd-	.	.
.	.	.	16bb-Jk	.
.	8en	8b- 8dd-	4bb-	.
.	8f	8b- 8dd-	.	.
4E-	8f	8g- 8b-	4gg-	.
.	8B-J	8g- 8b-J	.	.
!!LO:LB:g=original
=15	=15	=15	=15	=15
2D-	8cL	8f 8b-L	8.ffL	.
.	8d-	8b-	.	.
.	.	.	16dd-Jk	.
.	8g-	8b-	4dd-	.
.	8f	8b-	.	.
4E-	8d-	8g- 8an 8ee-	4ff	.
.	8cJ	8g- 8a 8ee-J	.	.
=16	=16	=16	=16	=16
[4BB-	8F 8B-L	8d- 8fL	8.dd-L	.
.	8F 8B-J	8d- 8f	.	.
.	.	.	16b-Jk	.
8BB-]	8F 8B-	8d- 8f	8b-	>
8rCC	(<8F'<	(>8f'>	8rff	.
4rCC	8F'<L	8f'>	4rff	.
.	8F'<J)	8f'>J)	.	.
*	*	*v	*v	*
=17||	=17||	=17||	=17||
*k[b-e-a-]	*k[b-e-a-]	*k[b-e-a-]	*
2.BB-	8FL	8d 8a- 8b-L	pp
.	8F	8e- 8a- 8cc	.
.	.	(8ddq	.
.	8F	8e- 8a- 8cc)	.
.	8F	8e- 8a- 8bn	.
.	8F	8e- 8a- 8cc	.
.	8FJ	8e- 8a- 8cc 8ffJ	.
=18	=18	=18	=18
*	*	*^	*
2.BB-	8FL	8e- 8a-L	8.ccL	.
.	8F	8e- 8a-	.	.
.	.	.	16b-Jk	.
.	8F	8d 8a-	2b-	.
.	8F	8d 8a-	.	.
.	8F	8d 8a-	.	.
.	8FJ	8d 8a-J	.	.
=19	=19	=19	=19	=19
2.BB-	8FL	8d 8a-L	8b-L	ppp
.	8F	8e- 8a-	8cc	.
.	.	.	(<8ddq	.
.	8F	8e- 8a-	8cc)	.
.	8F	8e- 8a-	8bnJ	.
.	8F	8e- 8a-	12ccL	.
.	.	.	12gg	.
.	8FJ	8e- 8a- 8ccJ	.	.
.	.	.	12ffJ	.
!!LO:LB:g=original
=20	=20	=20	=20	=20
2.BB-	8FL	8e- 8a- 8ccL	8.ffL	.
.	8F	8e- 8a- 8cc	.	.
.	.	.	16b-Jk	.
.	8F	8d 8a-	2b-	.
.	8F	8d 8a-	.	.
.	8F	8d 8a-	.	.
.	8FJ	8d 8a-J	.	.
=21	=21	=21	=21	=21
2E-	8GL	8d- 8b-L	2ee-	mf
.	8G	8d- 8cc	.	.
.	.	(8dd-q\	.	.
.	8G	8d- 8cc)	.	.
.	8G	8d- 8b-	.	.
4AA-	8G-	8d- 8b--	4ee-	.
.	8G-J	8c 8a-J	.	.
=22	=22	=22	=22	=22
2D-	8FL	8c- 8a-L	4ee--	.
.	8F	8c- 8b--	.	.
.	.	(8cc-q\	.	.
.	8F	8c-) 8b--	4dd-	.
.	8F	8c- 8a-	.	.
4GG-	8D- 8F	8c- 8a-	4dd-	.
.	8D- 8G-J	8B-X 8g-J	.	.
*v	*v	*	*	*
*	*v	*v	*
=23	=23	=23
8AA-L	8G- 8c 8fL	.
8AA-	8G- 8c 8e-	.
.	(8fq	.
8AA-	8G- 8c 8e-)	.
8AA-	8G- 8cn 8d	.
8BB--	8G- 8c 8d	.
8BB--J	8G- 8c 8e-J	.
=24	=24	=24
8AA-L	8G- 8c 8fL	.
8AA-	8G- 8c 8e-	.
.	(8fq	.
8AA-	8G- 8c 8e-)	.
8AA-	8G- 8c 8dn	.
8BB--	8G- 8c 8d	.
8BB--J	8G- 8c 8e-J	.
!!LO:LB:g=original
=25||	=25||	=25||
*k[f#c#g#d#]	*k[f#c#g#d#]	*
*^	*	*
8GG#L	2A	8F# 8B# 8eL	.
8GG#	.	8F# 8B# 8d#	.
.	.	(8eq	.
8GG#	.	8F# 8B# 8d#)	.
8GG#	.	8F# 8B# 8c##	.
8GG#	4G#	8F# 8B# 8d#	.
8GG#J	.	8F# 8B# 8eJ	.
*v	*v	*	*
=26	=26	=26
*	*^	*
8CC#: 8GG#: 8G#:L	8ryy	8E 8c#L	f
8GG# 8G#	4E	8E 8d#	.
8GG# 8G#	.	8c# 8e	.
8GG# 8G#	4c#	8c# 8f#	<
8CC# [8GG#	.	8e 8g#	.
8GG#] 8G#J	8ryy	8c# 8e 8cc#J	[
=27	=27	=27	=27
8CC#: 8FF#: 8C#: 8F#:L>	8B 8c# 8f#L	8.bL	>
8C# 8F# 8c#	8B 8f#	.	.
.	.	16aJk	]
8C# 8F# 8c#	8A 8f#	2a	.
8C# 8F# 8c#	8A 8f#	.	.
8C# 8F# 8c#	8A 8f#	.	.
8C# 8F# 8c#J	8A 8f#J	.	.
=28	=28	=28	=28
*^	*	*	*
8C#	8AA 8AL	8ryy	8F# 8c# 8f#L	.
4C#	8GG# 8G#	4c#	8A 8g#	<
.	8FF# 8F#	.	8f# 8a	.
4AA	8EE 8E	4c#	8c# 8b	.
.	8DD# 8D#	.	8f# 8cc#	.
8ryy	8D# 8A 8c#J	8ryy	8f# 8cc# 8ff#J	[
*v	*v	*	*	*
=29	=29	=29	=29
8GG#: 8F#: 8c#:L>	8aL	8.e 8.eeL	>
8F# 8c#	8a	.	.
.	.	16d# 16dd#Jk	]
8F# 8c#	8a	2d# 2dd#	.
8F# 8c#	8a	.	.
8GG# 8F# 8B#	8g#	.	.
8F# 8B#J	8g#J	.	.
!!LO:LB:g=original
=30	=30	=30	=30
*^	*	*	*
2.C#	16c#LL	8ryy	8e 8g# 8cc#L	mf
.	16G#	.	.	.
.	16c#	4g#	8e 8dd#	.
.	16BJJ	.	.	.
.	8.A#	.	8cc# 8ee	.
.	.	4cc#	8cc# 8ff#	.
.	16g#	.	.	.
.	8g#L	.	8ee 8gg#	.
.	16f#L	8ryy	8cc# 8gg# 8ccc#J	.
.	16eJJ	.	.	.
=31	=31	=31	=31	=31
2D# 2G#	16eLL	8b 8gg#L	8.bbL	.
.	16d#	.	.	.
.	16d#	8g# 8bJ	.	.
.	16c##JJ	.	16gg#Jk	.
.	16c##LL	8g# 8bL	4gg#	.
.	16d#	.	.	.
.	16d#	8g# 8bJ	.	.
.	16eJJ	.	.	.
4C#	16d#LL	8e 8g#L	4ee	.
.	16G#	.	.	.
.	16G#	8e 8g#J	.	.
.	16A#JJ	.	.	.
=32	=32	=32	=32	=32
2BB	16A#LL	8d# 8g#L	8.dd#L	.
.	16B	.	.	.
.	16B	8g#	.	.
.	16eJJ	.	16bJk	.
.	16eLL	8g#	4b	.
.	16d#	.	.	.
.	16d#	8g#	.	.
.	16BJJ	.	.	.
4C#	16BLL	8e 8f## 8cc#	4dd#	.
.	16A#	.	.	.
.	16A#	8e 8f## 8cc#J	.	.
.	16G#JJ	.	.	.
*v	*v	*	*	*
=33	=33	=33	=33
4.GG# 4.D# 4.G#	8B 8d#L	8.bL	.
.	8B 8d#J	.	.
.	.	16g#Jk	.
.	8B 8d#	8g#	.
(8D#'	(>8d#'>	8rff	.
8D#'L	8d#'>L	4rff	.
8D#'J)	8d#'>J)	.	.
!!LO:LB:g=original
=34	=34	=34	=34
*^	*	*	*
2.GG#	8D#L	8B# 8f#L	8g#L	pp
.	8D#	8c# 8f#	8a	.
.	.	.	(<8bq	.
.	8D#	8c# 8f#	8a)	.
.	8D#	8c# 8f#	8g#	.
.	8D#	8c# 8f#	8a	.
.	8D#J	8c# 8f#J	8a 8dd#J	.
=35	=35	=35	=35	=35
2.GG#	8D#L	8c# 8f#L	8.aL	.
.	8D#	8c# 8f#	.	.
.	.	.	16g#Jk	.
.	8D#	8B# 8f#	2g#	.
.	8D#	8B# 8f#	.	.
.	8D#	8B# 8f#	.	.
.	8D#J	8B# 8f#J	.	.
=36	=36	=36	=36	=36
2.GG#	8D#L	8B# 8f#L	8g#L	ppp
.	8D#	8c# 8f#	8a	.
.	.	.	(<8bq	.
.	8D#	8c# 8f#	8a)	.
.	8D#	8c# 8f#	8g#J	.
.	8D#	8c# 8f#	12aL	.
.	.	.	12ee	.
.	8D#J	8c# 8f# 8aJ	.	.
.	.	.	12dd#J	.
=37	=37	=37	=37	=37
2.GG#	8D#L	8c# 8f# 8aL	8.dd#L	.
.	8D#	8c# 8f#	.	.
.	.	.	16g#Jk	.
.	8D#	8B# 8f#	2g#	.
.	8D#	8B# 8f#	.	.
.	8D#	8B# 8f#	.	.
.	8D#J	8B# 8f#J	.	.
*	*	*v	*v	*
=38	=38	=38	=38
2BB	8C#L	8c# 8e 8g#L	pp
.	8C#	8c# 8e 8a	.
.	.	(8bq	.
.	8C#	8c# 8e 8a)	.
.	8C#	8c# 8e 8g#	.
4AA	8C#	8c# 8g# 8cc#	.
.	8C#J	8F# 8c# 8f#J	.
=39	=39	=39	=39
2GG#	8C#L	8A 8c# 8eL	.
.	8C#	8A 8c# 8f#	.
.	.	(8g#q	.
.	8C#	8A 8c# 8f#)	.
.	8C#	8A 8c# 8e	.
4FF#	8C#	8A 8c# 8a	.
.	8C#J	8A 8c# 8d#J	.
!!LO:LB:g=original
=40	=40	=40	=40
2FF#	8C#L	8A 8B# 8d#L	>
.	8C#	8A 8B# 8e	.
.	.	(8f#q	.
.	8C#	8A 8B# 8e)	.
.	8C#	8A 8B# 8d#	.
4EE	8C#	8G# 8c# 8g#	.
.	8C#J	8G# 8c#J	.
=41	=41	=41	=41
*	*	*^	*
2FF#	8C#L	8A 8c#L	8.eL	.
.	8C#	8A 8c#	.	.
.	.	.	16d#Jk	.
.	8C#	8c#	4d#	.
.	8C#	8A 8c#	.	.
4FF##	8C#	8A 8c#	4e	.
.	8C#J	8A 8c#J	.	.
=42	=42	=42	=42	=42
8CC# 8GG# 8C#L	2ryy	8ryy	8E 8G# 8c#L	ppp
8C#	.	4E	8G# 8d#	.
8C#	.	.	8c# 8e	.
8C#	.	4c#	8c# 8f#	.
8C#	4G#	.	8e 8g#	.
8C#J	.	8ryy	8c# 8e 8cc#J	.
=43	=43	=43	=43	=43
8C#L	4F##	2c# 2e	8.bL	.
8C#	.	.	.	.
.	.	.	16aJk	.
8C#	4G#	.	4g#	.
8C#	.	.	.	.
8C#	4A	4c#	4f#X	.
8C#J	.	.	.	.
=44	=44	=44	=44	=44
4C#	8C#L	4G# 4c#	8.eL	.
.	8C#	.	.	.
.	.	.	16c#Jk	.
4BB	8C#	2ryy	4G# 4c#	.
.	8C#	.	.	.
4AA	8C#	.	4F# 4c# 4f#	.
.	8C#J	.	.	.
*v	*v	*	*	*
=45	=45	=45	=45
2.CC#;< 2.GG#;< 2.C#;<	2.E; 2.G#;	8eL	.
.	.	8c#J	.
.	.	2c#;	.
*	*v	*v	*
==	==	==
*-	*-	*-
!!!system-decoration: {(*)}
!!!RDF**kern: > = above
!!!RDF**kern: < = below
!!!RDF**dynam: > = dim.
!!!PPP: Moscow: P. Jurgenson, n.d.[1894]. Plate 18904, 19261a and b.
!!!URL-pdf: https://s9.imslp.org/files/imglnks/usimg/8/8e/IMSLP423301-PMLP07373-Op._2_-_Etude_in_C-sharp_minor_(1894_Jurgenson,_FE).pdf First edition
!!!ENC: Craig Stuart Sapp
!!!END: 2004/12/07
!!!EED: Craig Stuart Sapp
!!!EEV: 2023/02/18
